X: 80
T: Alıverin Bağlamamı Çalayım
C: (Anonim)
O: Turkey
F: http://compmusic.upf.edu/node/140
N: huzzam--turku--sofyan--aliverin_baglamami--
N: makam= huzzam
N: form= turku
N: usul= sofyan = 4/4
M: 4/4
L: 1/16
K: C _1/4B _3/4e ^3/4f 
Q: 1/4=81
%%MIDI tuningsystem comma53
d3c dccB B4 z2Bc  | d3c dccB B4 z2Bc  | \
w:  ARANAĞME  |   | 
d3_1/4e dccB B2g4fe  | 
w:   | 
d3e dccB B4 z2Bc  | d3c dccB B4 z2Bc  | \
w:   |  ARANAĞME  | 
d3c dccB B4 z2Bc  | 
w:   | 
d3_1/4e dccB B2g4fe  | d3_1/4e dccB B4 agf^e  | 
w:   |   | 
f4 f2f2 f4 f4  | a3g g3f f3e feed  | \
w:  *  A lı ve rin   |  bağ *  la *  ma  | 
d2z2 g2g2 g2f2 e2a2  | 
w:  mı  ça la yım  *  *  a  | 
g2=f2 _1/4e2d2 d2_3/4e2 ^3/4f2ed  | \
w:  man  *  *  a man  *  *  a  | 
d6ag gff^e fgeg  | f4 f2f2 f4 f4  | 
w:  man   SAZ  |  *  A lı ve rin   | 
a3g g3f f3e feed  | d2z2 g2g2 g2f2 e2a2  | \
w:  bağ *  la *  ma  |  mı  ça la yım  *  *  a  | 
g2=f2 _1/4e2d2 d2_3/4e2 ^3/4f2ed  | 
w:  man  *  *  a man  *  *  a  | 
d6de dcBc d2ef  | g4 f2g2 a3g f2e2  | \
w:  man   SAZ  |  *  Ça la yım  *  da   | 
g3f e2d2 f3e d2c2  | 
w:  za *  rı  *  za *  rı   | 
d2ed dccB B4 cdef  | g4 f2g2 a3g f2e2  | \
w:  ağ *  *  la *  *  *  yım   SAZ  |  *  Ça la yım  *  da   | 
g3f e2d2 f3e d2c2  | 
w:  za *  rı  *  za *  rı   | 
d2ed dccB B4 agf^e  | f4 f2f2 f4 f4  | \
w:  ağ *  *  la *  *  *  yım   SAZ  |  *  Bir  men dil  ver   | 
a3g g3f f3e feed  | 
w:  göz *  ya *  şı  | 
d2z2 g2g2 g2f2 e2a2  | g2=f2 _1/4e2d2 d2_3/4e2 ^3/4f2ed  | \
w:  mı  si le yim  *  *  a  |  man  *  *  a man  *  *  a  | 
d6ag gff^e fgeg  | 
w:  man   SAZ  | 
f4 f2f2 f4 f4  | a3g g3f f3e feed  | \
w:  *  Bir  men dil  ver   |  göz *  ya *  şı  | 
d2z2 g2g2 g2f2 e2a2  | 
w:  mı  si le yim  *  *  a  | 
g2=f2 _1/4e2d2 d2_3/4e2 ^3/4f2ed  | \
w:  man  *  *  a man  *  *  a  | 
d6de dcBc d2ef  | g4 g2f2 a3g f2fe  | 
w:  man   SAZ  |  Ağ la ya  ağ *  la ya   | 
g3f e2d2 f3e d2c2  | d2ed dccB Bcde fag2  | 
w:  göz *  le *  ri *  me   |  kan  *  *  dol *  *  *  du   SAZ  | 
g2g4f2 a3g f2e2  | g2gf e2ed f3e d2dc  | \
w:  Si yah  da  zül *  fün   |  pen be  *  ya nak  *  üs *  tü ne   | 
d2ed dccB B4 z2Bc  | 
w:  bend_ *  *  ol *  *  *  du   SAZ  | 
d3c dccB B4 z2Bc  | d3c dccB B4 z2Bc  | \
w:  ARANAĞME  |   | 
d3_1/4e dccB B2g4fe  | 
w:   | 
d3e dccB B4 z2Bc  | d3c dccB B4 z2Bc  | \
w:   |  ARANAĞME  | 
d3c dccB B4 z2Bc  | 
w:   | 
d3_1/4e dccB B2g4fe  | d3_1/4e dccB B4 agf^e  | 
w:   |   | 
f4 f2f2 f4 f4  | a3g g3f f3e feed  | \
w:  *  Kah ve  ol sam   |  do *  lap *  lar  | 
d2z2 g2g2 g2f2 e2a2  | 
w:  da  kav rul sam  *  *  a  | 
g2=f2 _1/4e2d2 d2_3/4e2 ^3/4f2ed  | \
w:  man  *  *  a man  *  *  a  | 
d6ag gff^e fgeg  | f4 f2f2 f4 f4  | 
w:  man   SAZ  |  *  Kah ve  ol sam   | 
a3g g3f f3e feed  | d2z2 g2g2 g2f2 e2a2  | \
w:  do *  lap *  lar  |  da  kav rul sam  *  *  a  | 
g2=f2 _1/4e2d2 d2_3/4e2 ^3/4f2ed  | 
w:  man  *  *  a man  *  *  a  | 
d6de dcBc d2ef  | g4 g2gf a3g f2e2  | \
w:  man   SAZ  |  Toz  du man  *  ol *  sam   | 
g3f e2d2 f3e d2c2  | 
w:  dağ  *  ba *  şın *  da   | 
d2ed dccB Bcde fag2  | g4 g2gf a3g f2e2  | 
w:  sav *  *  rul *  *  *  sam   SAZ  |  Toz  du man  *  ol *  sam   | 
g3f e2d2 f3e d2c2  | d2ed dccB B4 agf^e  | \
w:  dağ  *  ba *  şın *  da   |  sav *  *  rul *  *  *  sam   SAZ  | 
f4 f2f2 f4 f4  | 
w:  *  Ke mer_ ol sam   | 
a3g g3f f3e feed  | d2z2 g2g2 g2f2 e2a2  | \
w:  yâr  *  be *  li  |  ne  sa rıl sam  *  *  a  | 
g2=f2 _1/4e2d2 d2_3/4e2 ^3/4f2ed  | 
w:  man  *  *  a man  *  *  a  | 
d6ag gff^e fgeg  | f4 f2f2 f4 f4  | a3g g3f f3e feed  | 
w:  man   SAZ  |  *  Ke mer_ ol sam   |  yâr  *  be *  li  | 
d2z2 g2g2 g2f2 e2a2  | g2=f2 _1/4e2d2 d2_3/4e2 ^3/4f2ed  | \
w:  ne  sa rıl sam  *  *  a  |  man  *  *  a man  *  *  a  | 
d6de dcBc d2ef  | 
w:  man   SAZ  | 
g4 g2f2 a3g f2fe  | g3f e2d2 f3e d2c2  | \
w:  Ağ la ya  ağ *  la ya   |  göz *  le *  ri *  me   | 
d2ed dccB Bcde fag2  | 
w:  kan  *  *  dol *  *  *  du   SAZ  | 
g2g4f2 a3g f2e2  | g2gf e2ed f3e d2dc  | \
w:  Si yah  da  zül *  fün   |  pen be  *  ya nak  *  üs *  tü ne   | 
d2ed dccB B6z2  | 
w:  bend_ *  *  ol *  *  *  du    | 
|


